X:1
T:Pray young Man your suit give over
T:Pray young Man your suit give over
T:Sung by Miss Simms
T:Reeve
C:Reeve
%%score 1 2
L:1/8
M:6/8
K:C
V:1 treble 
V:2 treble 
V:1
 g2 e g2 e | (de)f e2 c | g2 e c2 c | (cd)e d3 | g2 e g2 e | (de)f e2 c | c2 B A2 A | (AG)A G2 g | %8
w: Pray young Man your|suit * give ov- er,|Heav'n de- sign'd you|not * for me|cease to be a|whin- * ing lov- er,|sour and sweet will|ne'er * a- gree. *|
 fef efg | fef e2 z | (GA)B c2 c | (cd)e A2 A | (AB)^c d2 d | (de)f B2 (e/d/) | c2 e c2 f | %15
w: ||Clown- * ish in each|limb * and fea- ture,|you've * no skill to|dance * or sing, at *|best yo're but an|
 c2 g c2 !fermata!a | d2 d (de)f | e2 d c2 z | e2 e f2 z | d2 d e2 z | g2 f e2 e | (dc)d c2 c' | %22
w: awk- ward crea- ture,|I you know * am|quite the thing,|quite the thing,|quite the thing|I you know am|quite * the thing. *|
 c'e'c' gc'g | ege ceg | c'3 c'3 | !fermata!c'6 |] %26
w: ||||
V:2
 e2 c e2 c | (Bc)d c2 E | E2 G E2 E | (EG)c B3 | e2 c e2 c | (Bc)d c2 E | E2 G F2 F | (FE)F E2 e | %8
w: Pray young Man &c.||||||||
 dcd cde | dcd c2 z | (EF)G A2 A | (AB)c F2 F | (FG)E F2 F | (FG)A G2 (c/G/) | E2 G E2 A | %15
w: |||||||
 E2 e c2 !fermata!f | B2 B (Bc)d | c2 G E2 z | c2 c d2 z | B2 B c2 z | e2 d c2 G | (FE)F E2 z | %22
w: |||||||
 c'e'c' gc'g | ege ceg | ceg ceg | !fermata!c6 |] %26
w: ||||

